SeaMapSymbols/egress.svg

<?xml version="1.0" encoding="UTF-8" standalone="no"?>
<!-- Created with Inkscape (http://www.inkscape.org/) -->

<svg
   xmlns:dc="http://purl.org/dc/elements/1.1/"
   xmlns:cc="http://creativecommons.org/ns#"
   xmlns:rdf="http://www.w3.org/1999/02/22-rdf-syntax-ns#"
   xmlns:svg="http://www.w3.org/2000/svg"
   xmlns="http://www.w3.org/2000/svg"
   xmlns:xlink="http://www.w3.org/1999/xlink"
   xmlns:sodipodi="http://sodipodi.sourceforge.net/DTD/sodipodi-0.dtd"
   xmlns:inkscape="http://www.inkscape.org/namespaces/inkscape"
   width="120"
   height="120"
   id="svg2"
   version="1.1"
   inkscape:version="0.48.2 r9819"
   sodipodi:docname="egress.svg"
   style="display:inline"
   inkscape:export-filename="/Users/mherring/boatsw/oseam/openseamap/josm/icons/WindSurfing16.png"
   inkscape:export-xdpi="12"
   inkscape:export-ydpi="12">
  <defs
     id="defs4">
    <filter
       height="1.8382957"
       y="-0.41914788"
       width="1.2321891"
       x="-0.11609452"
       id="filter6987-4"
       inkscape:collect="always">
      <feGaussianBlur
         id="feGaussianBlur6989-9"
         stdDeviation="3.6772358"
         inkscape:collect="always" />
    </filter>
    <linearGradient
       id="linearGradient6898-4"
       inkscape:collect="always">
      <stop
         id="stop6900-02"
         offset="0"
         style="stop-color:#40c0ff;stop-opacity:1" />
      <stop
         id="stop6902-2"
         offset="1"
         style="stop-color:#ffffff;stop-opacity:1" />
    </linearGradient>
    <linearGradient
       id="linearGradient6960-9"
       inkscape:collect="always">
      <stop
         id="stop6962-7"
         offset="0"
         style="stop-color:#0080c0;stop-opacity:1;" />
      <stop
         id="stop6964-4"
         offset="1"
         style="stop-color:#00213e;stop-opacity:1" />
    </linearGradient>
    <linearGradient
       id="linearGradient6968-0"
       inkscape:collect="always">
      <stop
         id="stop6970-1"
         offset="0"
         style="stop-color:#00213e;stop-opacity:1" />
      <stop
         id="stop6972-77"
         offset="1"
         style="stop-color:#0090be;stop-opacity:1" />
    </linearGradient>
    <linearGradient
       inkscape:collect="always"
       xlink:href="#linearGradient6898-4"
       id="linearGradient56254"
       gradientUnits="userSpaceOnUse"
       x1="38.536026"
       y1="1.7416568"
       x2="49.272728"
       y2="78.669807" />
    <linearGradient
       inkscape:collect="always"
       xlink:href="#linearGradient6960-9"
       id="linearGradient56256"
       gradientUnits="userSpaceOnUse"
       gradientTransform="translate(-2,0)"
       x1="6.9552503"
       y1="51.214668"
       x2="48.57143"
       y2="53.015812" />
    <linearGradient
       inkscape:collect="always"
       xlink:href="#linearGradient6968-0"
       id="linearGradient56258"
       gradientUnits="userSpaceOnUse"
       gradientTransform="translate(-2,0)"
       x1="70.178581"
       y1="73.227554"
       x2="4.4642854"
       y2="69.834694" />
    <clipPath
       clipPathUnits="userSpaceOnUse"
       id="clipPath56274">
      <rect
         style="fill:none;stroke:none"
         id="rect56276"
         width="80"
         height="80"
         x="20"
         y="20"
         rx="20"
         ry="20" />
    </clipPath>
  </defs>
  <sodipodi:namedview
     id="base"
     pagecolor="#ffffff"
     bordercolor="#666666"
     borderopacity="1.0"
     inkscape:pageopacity="0.0"
     inkscape:pageshadow="2"
     inkscape:zoom="2.8"
     inkscape:cx="10.112413"
     inkscape:cy="30.146701"
     inkscape:document-units="px"
     inkscape:current-layer="g6673"
     showgrid="true"
     inkscape:window-width="1920"
     inkscape:window-height="1088"
     inkscape:window-x="0"
     inkscape:window-y="0"
     inkscape:window-maximized="1"
     inkscape:snap-global="false">
    <inkscape:grid
       type="xygrid"
       id="grid3004"
       empspacing="5"
       visible="true"
       enabled="true"
       snapvisiblegridlinesonly="true" />
  </sodipodi:namedview>
  <metadata
     id="metadata7">
    <rdf:RDF>
      <cc:Work
         rdf:about="">
        <dc:format>image/svg+xml</dc:format>
        <dc:type
           rdf:resource="http://purl.org/dc/dcmitype/StillImage" />
        <dc:title />
      </cc:Work>
    </rdf:RDF>
  </metadata>
  <g
     style="display:inline"
     inkscape:groupmode="layer"
     id="g6673"
     inkscape:label="Whitewater Egress">
    <g
       id="g56260"
       clip-path="url(#clipPath56274)">
      <g
         transform="translate(-149.64286,-0.71428572)"
         id="g56244">
        <g
           id="layer4-0"
           inkscape:label="BackGr"
           style="display:inline"
           transform="translate(170.20695,21.430468)">
          <rect
             style="fill:url(#linearGradient56254);fill-opacity:1;fill-rule:evenodd;stroke:none;stroke-width:1;marker:none;visibility:visible;display:inline;overflow:visible;enable-background:accumulate"
             id="rect6895-46"
             width="75.473404"
             height="75.928154"
             x="2.0717416"
             y="2.2416568"
             rx="21.095205"
             ry="18.560369" />
          <path
             inkscape:connector-curvature="0"
             transform="matrix(1.1723042,-0.1433347,0.1004078,1.6734954,-5.0901022,-7.7929581)"
             style="fill:#f6fcff;fill-opacity:1;fill-rule:evenodd;stroke:none;stroke-width:1;marker:none;visibility:visible;display:inline;overflow:visible;filter:url(#filter6987-4);enable-background:accumulate"
             d="m 16.996063,2.8308038 36.99913,2.6482146 c 11.686743,0 13.200822,3.9669243 16.403383,6.4466326 l 5.637431,7.372575 c 0,2.205409 -18.080826,2.70042 -29.09666,1.144856 L 21.58656,22.01843 C 8.8425892,23.899356 -0.16431579,21.6206 -0.29651929,18.866192 L 3.5464729,9.6172362 C 5.1934696,7.0152163 5.3093198,2.8308038 16.996063,2.8308038 z"
             id="rect6906-6"
             sodipodi:nodetypes="ccccccccc" />
        </g>
        <g
           id="layer2-8"
           inkscape:label="Water"
           style="display:inline"
           transform="translate(170.20695,21.430468)">
          <path
             inkscape:connector-curvature="0"
             style="fill:url(#linearGradient56256);fill-opacity:1;fill-rule:evenodd;stroke:none"
             d="M 38.892857,39.642857 C 31.09957,38.667555 19.551966,41.106003 13.357143,45.357143 7.9054613,49.098309 3.9048981,56.612706 2.1071428,63.75 3.5433071,69.370079 3.5433071,69.370079 7.0866142,72.913386 14.642451,78.894259 62.83017,81.445153 72.821428,69.107143 59.30494,69.306876 56.648845,69.165894 50.142857,68.571429 31.300289,66.849748 25.320373,58.651355 38.892857,39.642857 z"
             id="path6958-5"
             sodipodi:nodetypes="cccccsc" />
          <path
             inkscape:connector-curvature="0"
             style="fill:url(#linearGradient56258);fill-opacity:1;fill-rule:evenodd;stroke:none;stroke-width:1;marker:none;visibility:visible;display:inline;overflow:visible;enable-background:accumulate"
             d="m 4.2737765,65.178574 c 22.9237805,1.900509 63.0490585,4.191505 71.9167515,0.648198 l -4.61908,6.620936 c -2.5,2.328623 -18.485604,6.838025 -8.416634,4.695168 l -46.381038,0.357143 c -1.002458,0 -9.1233261,-5.402259 -11.9804689,-7.195168 L 2.4642854,66.480886 c 0,-0.721481 0.807033,-1.302312 1.8094911,-1.302312 z"
             id="rect6955-2"
             sodipodi:nodetypes="cccccccc" />
        </g>
        <g
           id="layer3-0"
           inkscape:label="Arrow"
           style="display:inline"
           transform="translate(170.20695,21.430468)">
          <path
             inkscape:connector-curvature="0"
             style="fill:#ffa82d;fill-opacity:1;fill-rule:evenodd;stroke:#ff4000;stroke-width:2.15425372;stroke-linecap:butt;stroke-linejoin:miter;stroke-miterlimit:4;stroke-opacity:1;stroke-dasharray:none;stroke-dashoffset:0;marker:none;visibility:visible;display:inline;overflow:visible;enable-background:accumulate"
             d="m 52.599969,9.2021269 -19.085342,19.0853421 11.444473,0 0,30.529815 15.281738,0 0,-30.529815 11.444473,0 L 52.599969,9.2021269 z"
             id="rect6097-6" />
        </g>
      </g>
      <rect
         ry="20"
         rx="20"
         y="22"
         x="22"
         height="76"
         width="76"
         id="rect6677"
         style="fill:none;stroke:#00213e;stroke-width:3.99999976;stroke-miterlimit:4;stroke-opacity:1;stroke-dasharray:none;display:inline"
         mask="none" />
    </g>
  </g>
</svg>

<?xml version="1.0" encoding="UTF-8" standalone="no"?>
<!-- Created with Inkscape (http://www.inkscape.org/) -->
<svg id="svg2" xmlns:rdf="http://www.w3.org/1999/02/22-rdf-syntax-ns#" xmlns="http://www.w3.org/2000/svg" height="120" width="120" version="1.1" xmlns:cc="http://creativecommons.org/ns#" xmlns:xlink="http://www.w3.org/1999/xlink" xmlns:dc="http://purl.org/dc/elements/1.1/">
 <defs id="defs4">
  <filter id="filter6987-4" height="1.8383" width="1.2322" y="-.41915" x="-.11609">
   <feGaussianBlur id="feGaussianBlur6989-9" stdDeviation="3.6772358"/>
  </filter>
  <linearGradient id="linearGradient56254" y2="78.67" gradientUnits="userSpaceOnUse" x2="49.273" y1="1.7417" x1="38.536">
   <stop id="stop6900-02" stop-color="#40c0ff" offset="0"/>
   <stop id="stop6902-2" stop-color="#fff" offset="1"/>
  </linearGradient>
  <linearGradient id="linearGradient56256" y2="53.016" gradientUnits="userSpaceOnUse" x2="48.571" gradientTransform="translate(-2)" y1="51.215" x1="6.9553">
   <stop id="stop6962-7" stop-color="#0080c0" offset="0"/>
   <stop id="stop6964-4" stop-color="#00213e" offset="1"/>
  </linearGradient>
  <linearGradient id="linearGradient56258" y2="69.835" gradientUnits="userSpaceOnUse" x2="4.4643" gradientTransform="translate(-2)" y1="73.228" x1="70.179">
   <stop id="stop6970-1" stop-color="#00213e" offset="0"/>
   <stop id="stop6972-77" stop-color="#0090be" offset="1"/>
  </linearGradient>
  <clipPath id="clipPath56274" clipPathUnits="userSpaceOnUse">
   <rect id="rect56276" rx="20" ry="20" height="80" width="80" y="20" x="20" fill="none"/>
  </clipPath>
 </defs>
 <metadata id="metadata7">
  <rdf:RDF>
   <cc:Work rdf:about="">
    <dc:format>image/svg+xml</dc:format>
    <dc:type rdf:resource="http://purl.org/dc/dcmitype/StillImage"/>
    <dc:title/>
   </cc:Work>
  </rdf:RDF>
 </metadata>
 <g id="g6673">
  <g id="g56260" clip-path="url(#clipPath56274)">
   <g id="g56244" transform="translate(-149.64 -.71429)">
    <g id="layer4-0" fill-rule="evenodd" transform="translate(170.21 21.43)">
     <rect id="rect6895-46" rx="21.095" ry="18.56" height="75.928" width="75.473" y="2.2417" x="2.0717" fill="url(#linearGradient56254)"/>
     <path id="rect6906-6" d="m16.996 2.8308 36.999 2.6482c11.687 0 13.201 3.9669 16.403 6.4466l5.6374 7.3726c0 2.2054-18.081 2.7004-29.097 1.1449l-25.351 1.574c-12.744 1.881-21.751-0.397-21.884-3.152l3.8435-9.2488c1.647-2.602 1.7628-6.7864 13.45-6.7864z" transform="matrix(1.1723 -.14333 .10041 1.6735 -5.0901 -7.793)" filter="url(#filter6987-4)" fill="#f6fcff"/>
    </g>
    <g id="layer2-8" fill-rule="evenodd" transform="translate(170.21 21.43)">
     <path id="path6958-5" d="m38.893 39.643c-7.793-0.975-19.341 1.463-25.536 5.714-5.4515 3.741-9.4521 11.256-11.25 18.393 1.4363 5.62 1.4363 5.62 4.9796 9.163 7.5554 5.981 55.743 8.532 65.734-3.806-13.516 0.2-16.172 0.059-22.678-0.536-18.843-1.721-24.823-9.92-11.25-28.928z" fill="url(#linearGradient56256)"/>
     <path id="rect6955-2" d="m4.2738 65.179c22.924 1.9005 63.049 4.1915 71.917 0.6482l-4.6191 6.6209c-2.5 2.3286-18.486 6.838-8.4166 4.6952l-46.381 0.35714c-1.0025 0-9.1233-5.4023-11.98-7.1952l-2.3297-3.824c0-0.72148 0.80703-1.3023 1.8095-1.3023z" fill="url(#linearGradient56258)"/>
    </g>
    <g id="layer3-0" transform="translate(170.21 21.43)">
     <path id="rect6097-6" d="m52.6 9.2021-19.085 19.085h11.444v30.53h15.282v-30.53h11.444l-19.085-19.085z" fill-rule="evenodd" stroke="#ff4000" stroke-width="2.1543" fill="#ffa82d"/>
    </g>
   </g>
   <rect id="rect6677" rx="20" ry="20" height="76" width="76" stroke="#00213e" y="22" x="22" stroke-width="4" fill="none"/>
  </g>
 </g>
</svg>
